X:1
T:Title
%%score ( 1 2 ) { 3 | 4 }
L:1/8
Q:1/4=98
M:6/8
K:F
V:1 treble nm="Grand Piano, Soprano"
V:2 treble 
V:3 bass nm="Choir Pad, Lovingly, Tenderly Calling"
V:4 bass 
V:1
 F[FG][FA] [FB]2 [Fd] | [Fc]3 [Fc]3 | [EG][FA][GB] [FA]2 [EG] | F6 | F[FG][FA] [FB]2 [Fd] | %5
w: By~William~Augustine~Ogden * * * *|||||
 [Fc]3 [FA]3 | [EG][Ec][Ec] =BA[FB] | [Ec]6 | [Ec][EG][FA] [GB][FA][EG] | [FA]3 [Fc]3 | %10
w: |||||
 [FB][Fc][Fd] [Fc]2 [FA] | [EG]6 | C[CF][CF] F[EG][_EA] | [DB]3 [Fd]3 | [Fc][FA]F C-[CD][CE] | %15
w: |||||
 [CF]6 | C[FA][FA] [FA][CG][CF] | [CE][Ec][Ec] [Ec]3 | C[GB][GB] [GB][FA][EG] | F[Fc][Fc] [Fc]3 | %20
w: |||||
 C[FA][FA] [FA][EG]F | E[Fd][Fd] [Fd]3 | [Fc][FA]F [CE][CD][CE] | [CF]6- | [CF]3 z3 |] %25
w: |||||
V:2
 x6 | x6 | x6 | x6 | x6 | x6 | z3 .F3 | x6 | x6 | x6 | x6 | x6 | x6 | x6 | z3 .E3 | x6 | x6 | x6 | %18
 x6 | x6 | x6 | x6 | x6 | x6 | x6 |] %25
V:3
 A,B,C D2 B, | A,3 C3 | B,A,G, C2 B, | A,6 | A,B,[K:treble]C D2 B, | A,3 C3 | %6
 C[K:bass]A,G, G,2 G, | G,6 | G,[K:treble]CC C2 C | C3[K:bass] A,3 | B,A,B, C2 C | C6 | %12
 A,A,A, A,B,C | B,3 B,3 | A,CA, B,2 B, | A,6 | A,[K:treble]CC CB,A, | G,G,G, G,3 | %18
 E,G,[K:treble]C CCB, | A,[K:bass]A,A, A,3 | A,CC CB,A, | B,B,B, B,3 | A,CA, B,B,B, | A,6- | %24
 A,3 z3 |] %25
V:4
 F,F,F, F,2 F, | F,3 F,3 | C,C,C, C,2 C, | F,6 | F,F,F, F,2 F, | F,3 F,3 | .G,3 G,,2 G,, | C,6 | %8
 C,C,C, C,2 C, | F,3 F,3 | D,D,B,, A,,2 F,, | C,6 | F,F,F, F,2 F, | B,,3 B,,3 | C,C,C, C,2 C, | %15
 F,6 | F,F,F, F,F,F, | C,C,C, C,3 | C,C,C, C,C,C, | F,F,F, F,3 | F,F,F, F,F,F, | B,,B,,B,, B,,3 | %22
 C,C,C, C,C,C, | F,6- | F,3 z3 |] %25

